X:1
T:Title
%%score ( 1 2 ) { ( 3 5 ) | 4 }
L:1/8
Q:1/4=90
M:4/4
K:Eb
V:1 treble nm="Grand Piano, Soprano"
V:2 treble 
V:3 bass nm="Choir Pad, Beyond the Bar"
V:5 bass 
V:4 bass 
V:1
 [EG]2 [Ec]2- [Ec][EB] [B,D]>[A,C] | [B,D][DA] [EG]6 | [EG]2 [DB]2- [DB][DF] [B,E]2 | [DF]2 [EG]6 | %4
w: By~Fred~H.~Byshe * * * * *||||
 [EG]2 [EA]2- [EA][EB] [Ec]>[EB] | [DB][FA] G2- [FG-]2 [EG]2 | [EG]2 [EG]2- [EG][EF] [DF]2- | %7
w: |||
 [DF][EG] [EG]2- [EG][EF][DB]G | Bed-[Dd-] d/ z/ c [Dc]>D | B-[FB-][GB]G FGA-[DA-] | %10
w: |||
 AB [Dc]>d c-[Ec][EB]G | Bed-[Dd-] d/ z/ c [Dc]>D | B-[DB-][EB]G ABc-[Ec-] | %13
w: |||
 cc [Fe]>e d-[Fd-][Fd][DB] | [Dc][Fd] [Ee]2 z [E=A] [EB]>[B,D] | [B,E]8 |] %16
w: |||
V:2
 x8 | x8 | x8 | x8 | x8 | z2 E2 z4 | x8 | x8 | z2 .D2 D2 z2 | .E2 z2 z2 .D2 | D2 z2 .E2 z2 | %11
 z2 .D2 D2 z2 | .E2 z2 z2 .E2 | E2 z2 .F2 z2 | x8 | x8 |] %16
V:3
 B,2 A,2- A,G, A,>A, | A,[K:treble]C z E D>C[K:bass] B,2 | B,2 A,2- A,A, G,2 | B,2 B,6 | %4
 B,2 C2- CG, A,>G, | F,B, B,2 =B,2 C2 | C2 =A,2- A,A, B,2- | B,=A, A,2- A,A, ._A,2 | %8
 z2 F,A, F,2 A,2 | G,A, .B,2 z2 F,B, | F,2 A,2 A,A, .G,2 | z2 F,A, F,2 A,2 | G,A, .B,2 z2 A,A, | %13
 F,2 C2 B,B,B,A, | A,A, _G,2- G,/ z/ G, =G,>A, | G,8 |] %16
V:4
 E,2 E,2- E,E, F,>F, | B,,B,, E,6 | E,2 B,,2- B,,B,, B,,2 | B,,2 E,6 | E,2 E,2- E,E, E,>E, | %5
 B,,B,, E,2 D,2 C,2 | C,2 F,2- F,F, F,2- | F,F, F,2- F,F, .B,,2 | z2 B,,B,, B,,2 B,,2 | %9
 E,E, .E,2 z2 B,,B,, | B,,2 B,,2 E,E, .E,2 | z2 B,,B,, B,,2 B,,2 | E,F, .G,2 z2 A,,A,, | %13
 =A,,2 A,,2 B,,B,,B,,B,, | B,,B,, =B,,2- B,,/ z/ B,, _B,,>B,, | E,8 |] %16
V:5
 x8 | z2[K:treble] B,4[K:bass] z2 | x8 | x8 | x8 | x8 | x8 | x8 | x8 | x8 | x8 | x8 | x8 | x8 | %14
 x8 | x8 |] %16

